X: 1
T: Reel St. Jean
M: 4/4
L: 1/8
R: reel
K: Bmin
dB~B2 FB~B2|dfBd f2ed|cA~A2 EA~A2|ceAc e2fe|
dB~B2 FB~B2|dfBd f2cB|~A3c e2fe|1dAcA B2fe:|2dAcA B2Bc||
d2dc defg|a2ab afed|d'2 b2 afed|edef edBA|
d2dc defg|a2ab afed|d'2 b2 afed|1edef d2Bc:|2edef d2fe||
